styles/1/Numix/32/places/purple-folder-steam.svg

<?xml version="1.0" encoding="UTF-8" standalone="no"?>
<!-- Created with Inkscape (http://www.inkscape.org/) -->

<svg
   xmlns:dc="http://purl.org/dc/elements/1.1/"
   xmlns:cc="http://creativecommons.org/ns#"
   xmlns:rdf="http://www.w3.org/1999/02/22-rdf-syntax-ns#"
   xmlns:svg="http://www.w3.org/2000/svg"
   xmlns="http://www.w3.org/2000/svg"
   xmlns:sodipodi="http://sodipodi.sourceforge.net/DTD/sodipodi-0.dtd"
   xmlns:inkscape="http://www.inkscape.org/namespaces/inkscape"
   width="32"
   height="32"
   id="svg2"
   version="1.1"
   inkscape:version="0.91 r"
   sodipodi:docname="purple-folder-steam.svg"
   inkscape:export-filename="/media/Data/Main/Visuals/Icons/Numix/Desktop/repos/numix-wiki/Gjorgi/Numix-folders/48/New/folder-144.png"
   inkscape:export-xdpi="270"
   inkscape:export-ydpi="270">
  <defs
     id="defs4" />
  <sodipodi:namedview
     id="base"
     pagecolor="#ffffff"
     bordercolor="#666666"
     borderopacity="1.0"
     inkscape:pageopacity="0.0"
     inkscape:pageshadow="2"
     inkscape:zoom="13.399674"
     inkscape:cx="9.6537806"
     inkscape:cy="7.5969852"
     inkscape:document-units="px"
     inkscape:current-layer="layer1"
     showgrid="true"
     inkscape:window-width="1280"
     inkscape:window-height="998"
     inkscape:window-x="0"
     inkscape:window-y="0"
     inkscape:window-maximized="1"
     showguides="true"
     inkscape:guide-bbox="true">
    <inkscape:grid
       type="xygrid"
       id="grid2985"
       empspacing="5"
       visible="true"
       enabled="true"
       snapvisiblegridlinesonly="true" />
  </sodipodi:namedview>
  <metadata
     id="metadata7">
    <rdf:RDF>
      <cc:Work
         rdf:about="">
        <dc:format>image/svg+xml</dc:format>
        <dc:type
           rdf:resource="http://purl.org/dc/dcmitype/StillImage" />
        <dc:title />
      </cc:Work>
    </rdf:RDF>
  </metadata>
  <g
     inkscape:label="Layer 1"
     inkscape:groupmode="layer"
     id="layer1"
     transform="translate(0,-1020.3622)">
    <path
       style="font-size:medium;font-style:normal;font-variant:normal;font-weight:normal;font-stretch:normal;text-indent:0;text-align:start;text-decoration:none;line-height:normal;letter-spacing:normal;word-spacing:normal;text-transform:none;direction:ltr;block-progression:tb;writing-mode:lr-tb;text-anchor:start;baseline-shift:baseline;color:#000000;fill:#7e57c2;fill-opacity:1;fill-rule:nonzero;stroke:none;stroke-width:2.28612947;marker:none;visibility:visible;display:inline;overflow:visible;enable-background:accumulate;font-family:Sans;-inkscape-font-specification:Sans"
       d="M 2.03125 4 C 1.4665378 4.056 0.99079304 4.58885 1 5.15625 L 1 26.84375 C 0.99302 27.45105 1.5489584 28.007 2.15625 28 L 29.84375 28 C 30.451042 28.01 31.006984 27.45105 31 26.84375 L 31 7.15625 C 31.007 6.54895 30.451042 5.993 29.84375 6 L 19 6 L 19 5.15625 C 19.0069 4.55935 18.471863 4.0095 17.875 4 L 2.15625 4 L 2.03125 4 z M 19.75 11 C 21.355325 11 22.65625 12.3539 22.65625 14 C 22.65625 15.2232 21.936397 16.25335 20.90625 16.71875 C 20.89533 16.72275 20.88598 16.738 20.875 16.75 L 19.34375 19.5625 L 19.3125 19.5625 C 19.586133 19.9247 19.75 20.35325 19.75 20.84375 C 19.75 22.02115 18.803864 23 17.65625 23 C 16.528944 23 15.59262 22.05725 15.5625 20.90625 L 12.65625 19.5625 C 12.308012 19.8292 11.871033 20 11.40625 20 C 10.260176 20 9.3125 19.02125 9.3125 17.84375 C 9.3125 16.66795 10.260689 15.71875 11.40625 15.71875 C 12.553863 15.71875 13.5 16.66855 13.5 17.84375 L 16.375 19.15625 C 16.623439 18.95735 16.931655 18.818 17.25 18.75 L 17.25 15.5 C 16.991544 15.053 16.8125 14.553 16.8125 14 C 16.8125 12.3522 18.142621 11 19.75 11 z M 19.75 12 C 18.668654 12 17.8125 12.8929 17.8125 14 C 17.8125 15.1092 18.668654 15.96875 19.75 15.96875 C 20.829291 15.96875 21.6875 15.1092 21.6875 14 C 21.6875 12.8929 20.829805 12 19.75 12 z M 19.75 12.71875 C 20.442473 12.71875 21 13.2892 21 14 C 21 14.7091 20.442473 15.25 19.75 15.25 C 19.059581 15.25 18.5 14.7085 18.5 14 C 18.5 13.2888 19.059581 12.71875 19.75 12.71875 z M 11.40625 16.5625 C 10.57148 16.5625 10.15625 16.98795 10.15625 17.84375 C 10.15625 18.70165 10.57148 19.125 11.40625 19.125 C 11.510788 19.125 11.59604 19.14 11.6875 19.125 L 11.125 18.84375 C 10.651358 18.63925 10.455392 18.07955 10.65625 17.59375 C 10.857107 17.10745 11.401365 16.88715 11.875 17.09375 L 12.59375 17.40625 C 12.470073 16.83195 12.091706 16.5625 11.40625 16.5625 z M 17.65625 19.40625 C 17.472447 19.40625 17.284946 19.46525 17.125 19.53125 L 18.0625 19.9375 C 18.536133 20.1419 18.763357 20.7018 18.5625 21.1875 C 18.361642 21.6755 17.786134 21.92525 17.3125 21.71875 L 16.34375 21.28125 C 16.517125 21.86405 17.028848 22.25 17.65625 22.25 C 18.428859 22.25 19.03125 21.63575 19.03125 20.84375 C 19.03125 20.05175 18.428859 19.40625 17.65625 19.40625 z "
       transform="translate(0,1020.3622)"
       id="path3912" />
  </g>
</svg>

<!-- Created with Inkscape (http://www.inkscape.org/) -->
<svg xmlns="http://www.w3.org/2000/svg" viewBox="0 0 32 32">
 <g transform="translate(0,-1020.3622)">
  <path d="m 2.031 4 c -0.565 0.056 -1.04 0.589 -1.031 1.156 l 0 21.688 c -0.007 0.607 0.549 1.163 1.156 1.156 l 27.688 0 c 0.607 0.01 1.163 -0.549 1.156 -1.156 l 0 -19.688 c 0.007 -0.607 -0.549 -1.163 -1.156 -1.156 l -10.844 0 l 0 -0.844 c 0.007 -0.597 -0.528 -1.147 -1.125 -1.156 l -15.719 0 l -0.125 0 z m 17.719 7 c 1.605 0 2.906 1.354 2.906 3 c 0 1.223 -0.72 2.253 -1.75 2.719 c -0.011 0.004 -0.02 0.019 -0.031 0.031 l -1.531 2.813 l -0.031 0 c 0.274 0.362 0.438 0.791 0.438 1.281 c 0 1.177 -0.946 2.156 -2.094 2.156 c -1.127 0 -2.064 -0.943 -2.094 -2.094 l -2.906 -1.344 c -0.348 0.267 -0.785 0.438 -1.25 0.438 c -1.146 0 -2.094 -0.979 -2.094 -2.156 c 0 -1.176 0.948 -2.125 2.094 -2.125 c 1.148 0 2.094 0.95 2.094 2.125 l 2.875 1.313 c 0.248 -0.199 0.557 -0.338 0.875 -0.406 l 0 -3.25 c -0.258 -0.447 -0.438 -0.947 -0.438 -1.5 c 0 -1.648 1.33 -3 2.938 -3 z m 0 1 c -1.081 0 -1.938 0.893 -1.938 2 c 0 1.109 0.856 1.969 1.938 1.969 c 1.079 0 1.938 -0.86 1.938 -1.969 c 0 -1.107 -0.858 -2 -1.938 -2 z m 0 0.719 c 0.692 0 1.25 0.57 1.25 1.281 c 0 0.709 -0.558 1.25 -1.25 1.25 c -0.69 0 -1.25 -0.541 -1.25 -1.25 c 0 -0.711 0.56 -1.281 1.25 -1.281 z m -8.344 3.844 c -0.835 0 -1.25 0.425 -1.25 1.281 c 0 0.858 0.415 1.281 1.25 1.281 c 0.105 0 0.19 0.015 0.281 0 l -0.563 -0.281 c -0.474 -0.204 -0.67 -0.764 -0.469 -1.25 c 0.201 -0.486 0.745 -0.707 1.219 -0.5 l 0.719 0.313 c -0.124 -0.574 -0.502 -0.844 -1.188 -0.844 z m 6.25 2.844 c -0.184 0 -0.371 0.059 -0.531 0.125 l 0.938 0.406 c 0.474 0.204 0.701 0.764 0.5 1.25 c -0.201 0.488 -0.776 0.738 -1.25 0.531 l -0.969 -0.438 c 0.173 0.583 0.685 0.969 1.313 0.969 c 0.773 0 1.375 -0.614 1.375 -1.406 c 0 -0.792 -0.602 -1.438 -1.375 -1.438 z" transform="translate(0,1020.3622)" style="visibility:visible;fill:#7e57c2;fill-opacity:1;stroke:none;display:inline;color:#000;fill-rule:nonzero"/>
 </g>
</svg>
